apps/scalable/kde-gtk-config.svg

<svg xmlns="http://www.w3.org/2000/svg" style="isolation:isolate" width="256" height="256"><defs><filter id="a" width="270.648" height="254.338" x="-7.32" y="2.95" filterUnits="userSpaceOnUse"><feGaussianBlur xmlns="http://www.w3.org/2000/svg" in="SourceGraphic" stdDeviation="4.294"/><feOffset xmlns="http://www.w3.org/2000/svg" dy="4" result="pf_100_offsetBlur"/><feFlood xmlns="http://www.w3.org/2000/svg" flood-opacity=".4"/><feComposite xmlns="http://www.w3.org/2000/svg" in2="pf_100_offsetBlur" operator="in" result="pf_100_dropShadow"/><feBlend xmlns="http://www.w3.org/2000/svg" in="SourceGraphic" in2="pf_100_dropShadow"/></filter></defs><path fill="#5884F4" d="M165.685 11.947c74.055 0 84.639 10.557 84.639 84.544v59.251c0 73.986-10.584 84.543-84.639 84.543h-75.37c-74.055 0-84.639-10.557-84.639-84.543V96.491c0-73.987 10.584-84.544 84.639-84.544h75.37z" filter="url(#a)"/><path fill="#FFF" d="M5.676 126.116v29.626c0 73.986 10.584 84.543 84.639 84.543h75.37c74.055 0 84.639-10.557 84.639-84.543v-29.626H5.676z" opacity=".1"/><path fill="#FFF" d="M128 11.947v228.338h37.685c74.055 0 84.639-10.557 84.639-84.543V96.491c0-73.987-10.584-84.544-84.639-84.544H128z" opacity=".2"/><defs><filter id="b" width="145.029" height="170" x="48.49" y="49" filterUnits="userSpaceOnUse"><feGaussianBlur xmlns="http://www.w3.org/2000/svg" stdDeviation="4.294"/></filter></defs><path fill="#111" fill-rule="evenodd" d="M170.303 59c-32.008 0-37.964 44.508-19.945 44.508 17.995 0 51.958-44.508 19.945-44.508zm-50.884 5.469c-17.994 2.294-11.938 33.033-2.344 33.595 9.595.588 20.389-35.864 2.344-33.595zM89.318 76.582c-.806.1-1.856.438-2.756.781-14.476 5.838-2.219 29.739 5.881 28.126 7.619-1.512 8.719-30.126-3.125-28.907zM66.611 95.333c-1.269-.05-2.469.587-3.932 1.562-11.575 7.813 3.763 26.345 10.57 23.439 5.956-2.563 2.175-24.732-6.644-25.001m66.115 14.457c-24.832-.413-57.403 11.913-62.94 36.332C63.723 172.542 94.587 209 126.888 209c15.895 0 34.133-13.919 37.564-31.664 2.638-13.5-30.52-8.156-29.301.781 1.419 10.72-8.3 15.92-17.626 9.007-29.638-22.02 49.027-32.839 43.877-62.94-1.662-9.35-13.675-14.207-28.588-14.457" opacity=".4" filter="url(#b)"/><path fill="#FFF" fill-rule="evenodd" d="M170.303 59c-32.008 0-37.964 44.508-19.945 44.508 17.995 0 51.958-44.508 19.945-44.508zm-50.884 5.469c-17.994 2.294-11.938 33.033-2.344 33.595 9.595.588 20.389-35.864 2.344-33.595zM89.318 76.582c-.806.1-1.856.438-2.756.781-14.476 5.838-2.219 29.739 5.881 28.126 7.619-1.512 8.719-30.126-3.125-28.907zM66.611 95.333c-1.269-.05-2.469.587-3.932 1.562-11.575 7.813 3.763 26.345 10.57 23.439 5.956-2.563 2.175-24.732-6.644-25.001m66.115 14.457c-24.832-.413-57.403 11.913-62.94 36.332C63.723 172.542 94.587 209 126.888 209c15.895 0 34.133-13.919 37.564-31.664 2.638-13.5-30.52-8.156-29.301.781 1.419 10.72-8.3 15.92-17.626 9.007-29.638-22.02 49.027-32.839 43.877-62.94-1.662-9.35-13.675-14.207-28.588-14.457"/><g opacity=".4"><linearGradient id="c" x1=".517" x2=".517" y2="1"><stop offset="0%" stop-color="#fff"/><stop offset="12.5%" stop-opacity=".098" stop-color="#fff"/><stop offset="92.5%" stop-opacity=".098"/><stop offset="100%" stop-opacity=".498"/></linearGradient><path fill="none" stroke="url(#c)" stroke-linecap="round" stroke-linejoin="round" stroke-width="4.077" d="M165.685 11.947c74.055 0 84.639 10.557 84.639 84.544v59.251c0 73.986-10.584 84.543-84.639 84.543h-75.37c-74.055 0-84.639-10.557-84.639-84.543V96.491c0-73.987 10.584-84.544 84.639-84.544h75.37z" vector-effect="non-scaling-stroke"/></g></svg>

<svg xmlns="http://www.w3.org/2000/svg" style="isolation:isolate" width="256" height="256" viewBox="0 0 256 256">
 <defs>
  <filter id="xdXHbBi3xhwWseSjcXznZzebxtQeONhy" width="270.648" height="254.338" x="-7.32" y="2.95" filterUnits="userSpaceOnUse">
   <feGaussianBlur xmlns="http://www.w3.org/2000/svg" in="SourceGraphic" stdDeviation="4.294"/>
   <feOffset xmlns="http://www.w3.org/2000/svg" dx="0" dy="4" result="pf_100_offsetBlur"/>
   <feFlood xmlns="http://www.w3.org/2000/svg" flood-opacity=".4"/>
   <feComposite xmlns="http://www.w3.org/2000/svg" in2="pf_100_offsetBlur" operator="in" result="pf_100_dropShadow"/>
   <feBlend xmlns="http://www.w3.org/2000/svg" in="SourceGraphic" in2="pf_100_dropShadow" mode="normal"/>
  </filter>
 </defs>
 <g filter="url(#xdXHbBi3xhwWseSjcXznZzebxtQeONhy)">
  <path fill="#5884F4" d="M 165.685 11.947 C 239.74 11.947 250.324 22.504 250.324 96.491 L 250.324 155.742 C 250.324 229.728 239.74 240.285 165.685 240.285 L 90.315 240.285 C 16.26 240.285 5.676 229.728 5.676 155.742 L 5.676 96.491 C 5.676 22.504 16.26 11.947 90.315 11.947 L 165.685 11.947 Z"/>
 </g>
 <g opacity=".1">
  <path fill="#FFFFFF" d="M 5.676 126.116 L 5.676 155.742 C 5.676 229.728 16.26 240.285 90.315 240.285 L 165.685 240.285 C 239.74 240.285 250.324 229.728 250.324 155.742 L 250.324 126.116 L 5.676 126.116 Z"/>
 </g>
 <g opacity=".2">
  <path fill="#FFFFFF" d="M 128 11.947 L 128 240.285 L 165.685 240.285 C 239.74 240.285 250.324 229.728 250.324 155.742 L 250.324 96.491 C 250.324 22.504 239.74 11.947 165.685 11.947 L 128 11.947 Z"/>
 </g>
 <defs>
  <filter id="kMXtmaccg5P0bHIE4n88xFGj1NZhMZ2A" width="145.029" height="170" x="48.49" y="49" filterUnits="userSpaceOnUse">
   <feGaussianBlur xmlns="http://www.w3.org/2000/svg" stdDeviation="4.294"/>
  </filter>
 </defs>
 <g opacity=".4" filter="url(#kMXtmaccg5P0bHIE4n88xFGj1NZhMZ2A)">
  <path fill="#111111" fill-rule="evenodd" d="M 170.303 59 C 138.295 59 132.339 103.508 150.358 103.508 C 168.353 103.508 202.316 59 170.303 59 Z M 119.419 64.469 C 101.425 66.763 107.481 97.502 117.075 98.064 C 126.67 98.652 137.464 62.2 119.419 64.469 Z M 89.318 76.582 C 88.512 76.682 87.462 77.02 86.562 77.363 C 72.086 83.201 84.343 107.102 92.443 105.489 C 100.062 103.977 101.162 75.363 89.318 76.582 Z M 66.611 95.333 C 65.342 95.283 64.142 95.92 62.679 96.895 C 51.104 104.708 66.442 123.24 73.249 120.334 C 79.205 117.771 75.424 95.602 66.605 95.333 M 132.72 109.79 C 107.888 109.377 75.317 121.703 69.78 146.122 C 63.723 172.542 94.587 209 126.888 209 C 142.783 209 161.021 195.081 164.452 177.336 C 167.09 163.836 133.932 169.18 135.151 178.117 C 136.57 188.837 126.851 194.037 117.525 187.124 C 87.887 165.104 166.552 154.285 161.402 124.184 C 159.74 114.834 147.727 109.977 132.814 109.727"/>
 </g>
 <path fill="#FFFFFF" fill-rule="evenodd" d="M 170.303 59 C 138.295 59 132.339 103.508 150.358 103.508 C 168.353 103.508 202.316 59 170.303 59 Z M 119.419 64.469 C 101.425 66.763 107.481 97.502 117.075 98.064 C 126.67 98.652 137.464 62.2 119.419 64.469 Z M 89.318 76.582 C 88.512 76.682 87.462 77.02 86.562 77.363 C 72.086 83.201 84.343 107.102 92.443 105.489 C 100.062 103.977 101.162 75.363 89.318 76.582 Z M 66.611 95.333 C 65.342 95.283 64.142 95.92 62.679 96.895 C 51.104 104.708 66.442 123.24 73.249 120.334 C 79.205 117.771 75.424 95.602 66.605 95.333 M 132.72 109.79 C 107.888 109.377 75.317 121.703 69.78 146.122 C 63.723 172.542 94.587 209 126.888 209 C 142.783 209 161.021 195.081 164.452 177.336 C 167.09 163.836 133.932 169.18 135.151 178.117 C 136.57 188.837 126.851 194.037 117.525 187.124 C 87.887 165.104 166.552 154.285 161.402 124.184 C 159.74 114.834 147.727 109.977 132.814 109.727"/>
 <g opacity=".4">
  <linearGradient id="_lgradient_7" x1=".517" x2=".517" y1="0" y2="1">
   <stop offset="0%" style="stop-color:rgb(255,255,255)"/>
   <stop offset="12.5%" stop-opacity=".098" style="stop-color:rgb(255,255,255)"/>
   <stop offset="92.5%" stop-opacity=".098" style="stop-color:rgb(0,0,0)"/>
   <stop offset="100%" stop-opacity=".498" style="stop-color:rgb(0,0,0)"/>
  </linearGradient>
  <path fill="none" stroke="url(#_lgradient_7)" stroke-linecap="round" stroke-linejoin="round" stroke-width="4.077" d="M 165.685 11.947 C 239.74 11.947 250.324 22.504 250.324 96.491 L 250.324 155.742 C 250.324 229.728 239.74 240.285 165.685 240.285 L 90.315 240.285 C 16.26 240.285 5.676 229.728 5.676 155.742 L 5.676 96.491 C 5.676 22.504 16.26 11.947 90.315 11.947 L 165.685 11.947 Z" vector-effect="non-scaling-stroke"/>
 </g>
</svg>
